icons/3_Generic/Finance.svg

<svg xmlns="http://www.w3.org/2000/svg" width="1024" height="1024" fill="none">
   <g clip-path="url(#a)">
      <path fill="#8C72BD" d="M512 1024c282.77 0 512-229.23 512-512S794.77 0 512 0 0 229.23 0 512s229.23 512 512 512Z"/>
      <path fill="#fff" d="M258.17 442.06h63.46v165.97H277.7c-8.09 0-14.64 6.56-14.64 14.64 0 8.08 6.56 14.64 14.64 14.64h468.61c8.09 0 14.64-6.56 14.64-14.64 0-8.08-6.56-14.64-14.64-14.64h-43.93V442.06h63.46c8.09 0 14.64-6.57 14.63-14.66 0-5.08-2.64-9.8-6.97-12.46l-253.83-156.2a14.641 14.641 0 0 0-15.33 0l-253.83 156.2c-6.89 4.24-9.04 13.26-4.8 20.15 2.66 4.33 7.38 6.97 12.46 6.97Zm92.75 0h87.86v165.97h-87.86V442.06Zm205.02 0v165.97h-87.86V442.06h87.86Zm117.15 165.97h-87.86V442.06h87.86v165.97ZM512.01 288.3 714.1 412.77H309.92L512.01 288.3Zm288 412.47c0 8.09-6.56 14.64-14.64 14.64H238.64c-8.09 0-14.64-6.56-14.64-14.64 0-8.08 6.56-14.64 14.64-14.64h546.71c8.09 0 14.64 6.56 14.64 14.64h.02Z"/>
   </g>
   <defs>
      <clipPath id="a">
         <path fill="#fff" d="M0 0h1024v1024H0z"/>
      </clipPath>
   </defs>
</svg>

<svg width="1024" height="1024" viewBox="0 0 1024 1024" fill="none" xmlns="http://www.w3.org/2000/svg">
<g clip-path="url(#clip0_3_389)">
<path d="M512 1024C794.77 1024 1024 794.77 1024 512C1024 229.23 794.77 0 512 0C229.23 0 0 229.23 0 512C0 794.77 229.23 1024 512 1024Z" fill="#8C72BD"/>
<path d="M258.17 442.06H321.63V608.03H277.7C269.61 608.03 263.06 614.59 263.06 622.67C263.06 630.75 269.62 637.31 277.7 637.31H746.31C754.4 637.31 760.95 630.75 760.95 622.67C760.95 614.59 754.39 608.03 746.31 608.03H702.38V442.06H765.84C773.93 442.06 780.48 435.49 780.47 427.4C780.47 422.32 777.83 417.6 773.5 414.94L519.67 258.74C517.364 257.323 514.711 256.572 512.005 256.572C509.299 256.572 506.646 257.323 504.34 258.74L250.51 414.94C243.62 419.18 241.47 428.2 245.71 435.09C248.37 439.42 253.09 442.06 258.17 442.06ZM350.92 442.06H438.78V608.03H350.92V442.06ZM555.94 442.06V608.03H468.08V442.06H555.94ZM673.09 608.03H585.23V442.06H673.09V608.03ZM512.01 288.3L714.1 412.77H309.92L512.01 288.3ZM800.01 700.77C800.01 708.86 793.45 715.41 785.37 715.41H238.64C230.55 715.41 224 708.85 224 700.77C224 692.69 230.56 686.13 238.64 686.13H785.35C793.44 686.13 799.99 692.69 799.99 700.77H800.01Z" fill="white"/>
</g>
<defs>
<clipPath id="clip0_3_389">
<rect width="1024" height="1024" fill="white"/>
</clipPath>
</defs>
</svg>
